X:40
T:Coach Road to Sligo, The
M:6/8
L:1/8
Q:120
S:THSP
R:jig
Z:
K:G
"G"~g3 ege|"C"dBG AGE|"G"DGG FGA|"C"BGB "D"A2e|
"G"gfg age|"C"dBG AGE|"G"DGG FGA|"D"BGF "G"G2d:||:
"G"edd gdd|"C"edd gdd|"G"ede ~g3|edB "D"A2e|
"G"gfg age|"C"dBG AGE|"G"DGG FGA|"D"BGF "G"G2d:||
